src/assets/duotone/ArrowSquareDown.svg

<svg width="24" height="24" viewBox="0 0 24 24"  xmlns="http://www.w3.org/2000/svg">
<path opacity="0.4" d="M16.19 2H7.81C4.17 2 2 4.17 2 7.81V16.18C2 19.83 4.17 22 7.81 22H16.18C19.82 22 21.99 19.83 21.99 16.19V7.81C22 4.17 19.83 2 16.19 2Z" />
<path d="M12.0002 14.9101C11.8102 14.9101 11.6202 14.8401 11.4702 14.6901L7.94016 11.1601C7.65016 10.8701 7.65016 10.3901 7.94016 10.1001C8.23016 9.81007 8.71016 9.81007 9.00016 10.1001L12.0002 13.1001L15.0002 10.1001C15.2902 9.81007 15.7702 9.81007 16.0602 10.1001C16.3502 10.3901 16.3502 10.8701 16.0602 11.1601L12.5302 14.6901C12.3802 14.8401 12.1902 14.9101 12.0002 14.9101Z" />
</svg>

<?xml version="1.0" encoding="UTF-8"?>
<svg width="24" height="24" viewBox="0 0 24 24" xmlns="http://www.w3.org/2000/svg">
 <path d="M16.19 2H7.81C4.17 2 2 4.17 2 7.81V16.18C2 19.83 4.17 22 7.81 22H16.18C19.82 22 21.99 19.83 21.99 16.19V7.81C22 4.17 19.83 2 16.19 2Z" opacity=".4"/>
 <path d="m12 14.91c-0.19 0-0.38-0.07-0.53-0.22l-3.53-3.53c-0.29-0.29-0.29-0.77 0-1.06 0.29-0.29003 0.77-0.29003 1.06 0l3 3 3-3c0.29-0.29003 0.77-0.29003 1.06 0 0.29 0.29 0.29 0.77 0 1.06l-3.53 3.53c-0.15 0.15-0.34 0.22-0.53 0.22z"/>
</svg>
